X:418
%%etbk:tnset id:124,pos:3,rep:2x,ant:
%%etbk:tnset id:258,pos:8,rep:2x+A1B-Stop,ant:
%%etbk:wsite http://www.thesession.org/tunes/display/478
%%etbk:pldat 2016-06-23T18:27,2016-06-22T16:20,2016-06-21T16:24,2016-06-18T16:16,2016-03-05T13:54,2016-02-27T15:08,2015-10-06T15:49,2015-10-01T18:01,2015-06-26T17:50,2015-06-18T19:03,2015-03-11T17:16,2015-03-04T18:02,2014-10-29T17:15,2014-10-28T15:23,2014-10-23T18:31,2014-10-20T17:58,2014-10-12T14:33,2014-10-03T15:14,2014-08-21T19:21,2014-08-18T19:20,2014-06-22T16:43,2014-06-11T16:52,2014-06-07T15:03,2014-03-06T19:32,2014-02-26T17:16,2014-01-22T15:22,2014-01-21T16:27,2014-01-20T18:05,2014-01-19T12:54,2014-01-18T14:53,2014-01-15T15:35,2014-01-14T19:21,2014-01-12T13:19,2014-01-07T15:25,2013-12-29T13:20,2013-10-30T15:56,2013-10-28T17:54,2013-10-26T16:58,2013-10-18T15:21,2013-10-13T16:18,2013-10-11T17:59,2013-09-12T17:39
T: Cronin's
Z: Piano Box Version by Martin Fleischmann
H: Created 2013-02-19 /  Last Modified 2013-02-19
M: 4/4
L: 1/8
R: hornpipe
K: Gmaj
|: "G"!1!GA!3!B!4!d !2!d!1!B!2!d!3!e | !4!g{a}!4!g!4!g!2!e !1!d!2!e!3!ga | !5!ba!3!g!2!e !1!d!3!B!1!GA | "D"!3!BA{c}AG !2!AcBA |
"G"!1!GA!3!B!4!d !2!d!1!B!2!d!3!e | !4!g!3!g!4!g!2!e !1!de!3!ga | !5!ba!3!g!2!e "D"!1!d!3!B!2!A!4!c |1 "G"!3!B2!1!G2 G4:|2 "G"!3!B2!1!G2 G3!3!fg ||
|: "D"!5!a!3!f!1!d!2!^c !1!d2!3!ga | "em"!5!b!1!e !3!(3e!2!e!1!e !1!e2!3!ga | !5!bg!4!a!2!f !4!g!2!e!1!d!3!B | "D"!3!BAAG !2!AcBA |
"G"!1!GA!3!B!4!d !2!d!1!B!2!d!3!e | !4!g!3!g!4!g!2!e !1!de!3!ga | !5!ba!3!g!2!e "D"!1!d!3!B!2!A!4!c |1 "G"!3!B2!1!G2 G3!3!fg:|2 "G"!3!B2!1!G2 G4 ||


